!!!OTL: WIE EDEL IST DAS BERGMANNSLEBEN
!!!ARE: Europa, Mitteleuropa, Deutschland, Westfalen, Arnsberg, Allendorf
!!!SCT: E1526
!!!YEM: Copyright 1995, estate of Helmut Schaffrath.
**kern
*ICvox
*Ivox
*M6/8
*k[f#]
*G:
{8d
=1
8d
8g
8b
8b
8a
8g
=2
8g
8f#
8e
8e
8d}
{8d
=3
8d
8g
8b
4b
16a
16b
=4
4cc
8b
4a}
{8d
=5
8d
8g
8b
8b
8a
8g
=6
8g
8f#
8e
8e
8d}
{8d
=7
8d
8g
8b
4b
16a
16b
=8
4cc
8b
4a}
{8g
=9
4a
8dd
4a
16b
16a
=10
4g
8a
4f#
8d
=11
[4.b
4b]}
{16g
16a
=12
4b
8dd
8.dd
16cc
8b
=13
8cc
8b
8a
4g}
==
!!!AGN: Staende -, Bergmanns - Lied
!!!ONB: ESAC (Essen Associative Code) Database: ERK3
!!!AMT: compound duple
!!!AIN: vox
!!!EED: Helmut Schaffrath
!!!EEV: 1.0
*-
